src/assets/openship-logo-updated-white.svg

<svg width="203" height="31" viewBox="0 0 603 97" fill="none" xmlns="http://www.w3.org/2000/svg">
<path d="M169.857 76.6858C164.102 76.6858 158.867 75.3429 154.153 72.657C149.494 69.9162 145.821 66.1888 143.135 61.4747C140.449 56.7607 139.106 51.5807 139.106 45.9348C139.106 40.2888 140.449 35.1088 143.135 30.3948C145.821 25.6807 149.494 21.9807 154.153 19.2948C158.867 16.554 164.102 15.1837 169.857 15.1837C175.613 15.1837 180.82 16.554 185.479 19.2948C190.194 21.9807 193.894 25.6807 196.579 30.3948C199.265 35.1088 200.608 40.2888 200.608 45.9348C200.608 51.5807 199.265 56.7607 196.579 61.4747C193.894 66.1888 190.194 69.9162 185.479 72.657C180.82 75.3429 175.613 76.6858 169.857 76.6858ZM169.857 66.1614C173.475 66.1614 176.791 65.3118 179.806 63.6125C182.821 61.9133 185.178 59.5288 186.877 56.4592C188.631 53.3896 189.508 49.8814 189.508 45.9348C189.508 41.9881 188.631 38.48 186.877 35.4103C185.178 32.3407 182.821 29.9563 179.806 28.257C176.791 26.5577 173.475 25.7081 169.857 25.7081C166.24 25.7081 162.923 26.5577 159.908 28.257C156.948 29.9563 154.591 32.3407 152.837 35.4103C151.138 38.48 150.288 41.9881 150.288 45.9348C150.288 49.8814 151.138 53.3896 152.837 56.4592C154.591 59.5288 156.948 61.9133 159.908 63.6125C162.923 65.3118 166.24 66.1614 169.857 66.1614ZM209.311 33.437H219.424V38.5348H220.082C221.233 36.7259 222.905 35.2185 225.098 34.0125C227.29 32.7518 229.812 32.1214 232.662 32.1214C236.444 32.1214 239.87 33.0807 242.94 34.9992C246.064 36.8629 248.504 39.494 250.258 42.8925C252.012 46.2911 252.889 50.1281 252.889 54.4036C252.889 58.734 252.012 62.5984 250.258 65.997C248.504 69.3407 246.064 71.9718 242.94 73.8903C239.87 75.754 236.444 76.6858 232.662 76.6858C229.812 76.6858 227.263 76.0829 225.016 74.877C222.823 73.671 221.178 72.1636 220.082 70.3547H219.424L220.082 76.2747V93.1301H209.311V33.437ZM230.771 66.737C232.799 66.737 234.69 66.2162 236.444 65.1747C238.198 64.1333 239.596 62.6807 240.638 60.817C241.679 58.9533 242.2 56.8155 242.2 54.4036C242.2 51.9918 241.679 49.854 240.638 47.9903C239.596 46.1266 238.198 44.7014 236.444 43.7148C234.69 42.6733 232.799 42.1525 230.771 42.1525C228.798 42.1525 226.934 42.6733 225.18 43.7148C223.426 44.7014 222.028 46.1266 220.987 47.9903C219.945 49.854 219.424 51.9918 219.424 54.4036C219.424 56.8155 219.945 58.9533 220.987 60.817C222.028 62.6807 223.426 64.1333 225.18 65.1747C226.934 66.2162 228.798 66.737 230.771 66.737ZM280.841 76.6858C276.675 76.6858 272.92 75.7266 269.576 73.8081C266.233 71.8895 263.602 69.2584 261.683 65.9147C259.819 62.5162 258.888 58.7066 258.888 54.4859C258.888 50.4844 259.819 46.7844 261.683 43.3859C263.547 39.9325 266.123 37.1918 269.412 35.1637C272.701 33.1355 276.374 32.1214 280.43 32.1214C284.76 32.1214 288.488 33.0533 291.612 34.917C294.736 36.7807 297.093 39.3296 298.683 42.5637C300.328 45.7977 301.15 49.3881 301.15 53.3348C301.15 54.5955 301.068 55.8014 300.903 56.9525H269.412C269.96 60.2962 271.276 62.8451 273.359 64.5992C275.496 66.2984 278.045 67.1481 281.005 67.1481C283.472 67.1481 285.582 66.6273 287.336 65.5859C289.145 64.4896 290.571 63.037 291.612 61.2281L300.328 65.5036C296.052 72.9584 289.556 76.6858 280.841 76.6858ZM290.79 49.3059C290.68 47.9903 290.187 46.7022 289.31 45.4414C288.488 44.1259 287.309 43.057 285.774 42.2348C284.294 41.3577 282.54 40.9192 280.512 40.9192C277.936 40.9192 275.716 41.6866 273.852 43.2214C272.043 44.7014 270.728 46.7296 269.905 49.3059H290.79ZM309.447 33.437H319.56V38.6992H320.218C321.478 36.6711 323.26 35.0814 325.562 33.9303C327.864 32.7244 330.358 32.1214 333.044 32.1214C338.087 32.1214 341.924 33.6563 344.555 36.7259C347.186 39.7955 348.502 43.9888 348.502 49.3059V75.3703H337.731V50.6214C337.731 47.9355 337.046 45.8525 335.675 44.3725C334.305 42.8925 332.387 42.1525 329.92 42.1525C327.015 42.1525 324.658 43.2762 322.849 45.5236C321.095 47.7711 320.218 50.594 320.218 53.9925V75.3703H309.447V33.437ZM377.908 76.6858C372.755 76.6858 368.205 75.2332 364.259 72.3281C360.312 69.4229 357.544 65.3118 355.954 59.9947L366.396 55.8836C367.219 59.0081 368.616 61.5022 370.59 63.3659C372.563 65.2296 375.03 66.1614 377.99 66.1614C380.456 66.1614 382.567 65.5584 384.321 64.3525C386.075 63.0918 386.952 61.3651 386.952 59.1725C386.952 56.9799 386.102 55.1985 384.403 53.8281C382.759 52.4029 379.799 50.8955 375.523 49.3059L371.905 47.9903C368.123 46.6748 364.889 44.674 362.203 41.9881C359.517 39.2474 358.174 35.8214 358.174 31.7103C358.174 28.6407 358.969 25.8451 360.559 23.3237C362.148 20.8022 364.396 18.8289 367.301 17.4037C370.206 15.9237 373.495 15.1837 377.168 15.1837C382.485 15.1837 386.678 16.4444 389.748 18.9659C392.817 21.4326 394.928 24.3377 396.079 27.6814L386.294 31.7926C385.691 29.9837 384.622 28.4763 383.088 27.2703C381.608 26.0096 379.689 25.3792 377.332 25.3792C374.92 25.3792 372.919 25.9548 371.33 27.1059C369.795 28.2022 369.028 29.6548 369.028 31.4637C369.028 33.2177 369.768 34.7251 371.248 35.9859C372.728 37.1918 375.167 38.3703 378.565 39.5214L382.265 40.7548C387.363 42.5088 391.255 44.8385 393.941 47.7436C396.682 50.594 398.052 54.3488 398.052 59.0081C398.052 62.8451 397.065 66.1066 395.092 68.7925C393.119 71.4236 390.57 73.397 387.445 74.7125C384.376 76.0281 381.196 76.6858 377.908 76.6858ZM407.085 16.4992H417.856V31.3814L417.199 38.6992H417.856C419.062 36.7259 420.816 35.1363 423.119 33.9303C425.421 32.7244 427.915 32.1214 430.601 32.1214C435.699 32.1214 439.59 33.6563 442.276 36.7259C445.017 39.7407 446.387 43.934 446.387 49.3059V75.3703H435.616V50.6214C435.616 47.9355 434.876 45.8525 433.396 44.3725C431.971 42.8925 430.053 42.1525 427.641 42.1525C424.79 42.1525 422.433 43.3036 420.57 45.6059C418.761 47.9081 417.856 50.7311 417.856 54.0748V75.3703H407.085V16.4992ZM462.631 28.8326C460.713 28.8326 459.069 28.1474 457.698 26.777C456.328 25.4066 455.643 23.7622 455.643 21.8437C455.643 19.9252 456.328 18.3081 457.698 16.9926C459.069 15.6222 460.713 14.937 462.631 14.937C464.55 14.937 466.167 15.6222 467.483 16.9926C468.853 18.3081 469.538 19.9252 469.538 21.8437C469.538 23.7622 468.853 25.4066 467.483 26.777C466.167 28.1474 464.55 28.8326 462.631 28.8326ZM457.205 33.437H467.976V75.3703H457.205V33.437ZM478.942 33.437H489.056V38.5348H489.713C490.865 36.7259 492.536 35.2185 494.729 34.0125C496.922 32.7518 499.443 32.1214 502.293 32.1214C506.076 32.1214 509.502 33.0807 512.571 34.9992C515.696 36.8629 518.135 39.494 519.889 42.8925C521.643 46.2911 522.52 50.1281 522.52 54.4036C522.52 58.734 521.643 62.5984 519.889 65.997C518.135 69.3407 515.696 71.9718 512.571 73.8903C509.502 75.754 506.076 76.6858 502.293 76.6858C499.443 76.6858 496.894 76.0829 494.647 74.877C492.454 73.671 490.81 72.1636 489.713 70.3547H489.056L489.713 76.2747V93.1301H478.942V33.437ZM500.402 66.737C502.43 66.737 504.322 66.2162 506.076 65.1747C507.83 64.1333 509.227 62.6807 510.269 60.817C511.31 58.9533 511.831 56.8155 511.831 54.4036C511.831 51.9918 511.31 49.854 510.269 47.9903C509.227 46.1266 507.83 44.7014 506.076 43.7148C504.322 42.6733 502.43 42.1525 500.402 42.1525C498.429 42.1525 496.565 42.6733 494.811 43.7148C493.057 44.7014 491.659 46.1266 490.618 47.9903C489.576 49.854 489.056 51.9918 489.056 54.4036C489.056 56.8155 489.576 58.9533 490.618 60.817C491.659 62.6807 493.057 64.1333 494.811 65.1747C496.565 66.2162 498.429 66.737 500.402 66.737ZM548.827 16.4992H561.571L583.689 75.3703H571.438L566.505 61.3103H543.976L539.042 75.3703H526.791L548.827 16.4992ZM562.887 51.1148L557.707 36.3148L555.569 29.2437H554.911L552.774 36.3148L547.511 51.1148H562.887ZM591.638 16.4992H602.738V75.3703H591.638V16.4992Z" fill="#2e2a2a"/>
<path d="M90.2987 24.1958C95.5001 33.2037 97.6593 43.6474 96.4585 53.9793C95.2577 64.3112 90.7595 73.9811 83.631 81.5552C76.5029 89.1299 67.1235 94.2062 56.8836 96.0314C46.6438 97.8574 36.0881 96.3346 26.7815 91.6899L30.7921 83.6544C38.3712 87.4366 46.968 88.6768 55.3076 87.19C63.6468 85.7031 71.2857 81.5689 77.0911 75.4005C82.8964 69.2318 86.5602 61.3564 87.5374 52.9422C88.5164 44.528 86.7572 36.0223 82.5215 28.6863L90.2987 24.1958Z" fill="#2e2a2a"/>
<path d="M6.48325 72.5868C1.15794 63.3634 -0.9756 52.6401 0.413305 42.0808C1.80221 31.5211 6.63604 21.7146 14.1653 14.1817C21.6947 6.64877 31.4988 1.81032 42.0575 0.416336C52.6169 -0.977646 63.3406 1.15083 72.5667 6.47165L68.0798 14.2516C60.5662 9.91822 51.8325 8.18479 43.2332 9.32005C34.6339 10.4553 26.6492 14.3958 20.5173 20.5307C14.3854 26.6656 10.4487 34.652 9.31757 43.2517C8.18641 51.8516 9.92396 60.5847 14.2609 68.0962L6.48325 72.5868Z" fill="#2e2a2a"/>
<path d="M79.4128 17.5623C79.5645 15.7219 81.5082 14.6 83.1778 15.3886L94.7953 20.8766C96.725 21.7879 96.8355 24.4909 94.988 25.5576L82.3141 32.8749C80.4668 33.9417 78.1816 32.4938 78.3566 30.3675L79.4128 17.5623Z" fill="#2e2a2a"/>
<path d="M19.2911 80.006C19.1393 81.846 17.1959 82.968 15.5262 82.18L3.9085 76.6916C1.97941 75.7804 1.86809 73.0774 3.71578 72.0107L16.3897 64.6933C18.2374 63.6266 20.5226 65.0746 20.3472 67.2006L19.2911 80.006Z" fill="#2e2a2a"/>
</svg>

<svg width="203" height="31" viewBox="0 0 603 97" fill="none" xmlns="http://www.w3.org/2000/svg"><path d="M169.857 76.686c-5.755 0-10.99-1.343-15.704-4.029-4.659-2.74-8.332-6.468-11.018-11.182s-4.029-9.894-4.029-15.54c0-5.646 1.343-10.826 4.029-15.54 2.686-4.714 6.359-8.414 11.018-11.1 4.714-2.741 9.949-4.111 15.704-4.111 5.756 0 10.963 1.37 15.622 4.11 4.715 2.687 8.415 6.387 11.1 11.1 2.686 4.715 4.029 9.895 4.029 15.54 0 5.647-1.343 10.827-4.029 15.54-2.685 4.715-6.385 8.442-11.1 11.183-4.659 2.686-9.866 4.029-15.622 4.029zm0-10.525c3.618 0 6.934-.85 9.949-2.549 3.015-1.699 5.372-4.083 7.071-7.153 1.754-3.07 2.631-6.578 2.631-10.524 0-3.947-.877-7.455-2.631-10.525-1.699-3.07-4.056-5.454-7.071-7.153-3.015-1.7-6.331-2.549-9.949-2.549-3.617 0-6.934.85-9.949 2.549-2.96 1.7-5.317 4.084-7.071 7.153-1.699 3.07-2.549 6.578-2.549 10.525 0 3.946.85 7.455 2.549 10.524 1.754 3.07 4.111 5.454 7.071 7.153 3.015 1.7 6.332 2.55 9.949 2.55zm39.454-32.724h10.113v5.098h.658c1.151-1.81 2.823-3.316 5.016-4.522 2.192-1.261 4.714-1.892 7.564-1.892 3.782 0 7.208.96 10.278 2.878 3.124 1.864 5.564 4.495 7.318 7.893 1.754 3.4 2.631 7.236 2.631 11.512 0 4.33-.877 8.194-2.631 11.593-1.754 3.344-4.194 5.975-7.318 7.893-3.07 1.864-6.496 2.796-10.278 2.796-2.85 0-5.399-.603-7.646-1.809-2.193-1.206-3.838-2.713-4.934-4.522h-.658l.658 5.92V93.13h-10.771V33.437zm21.46 33.3c2.028 0 3.919-.52 5.673-1.562s3.152-2.494 4.194-4.358c1.041-1.864 1.562-4.002 1.562-6.413 0-2.412-.521-4.55-1.562-6.414-1.042-1.863-2.44-3.289-4.194-4.275a10.92 10.92 0 00-5.673-1.563c-1.973 0-3.837.521-5.591 1.563-1.754.986-3.152 2.412-4.193 4.275-1.042 1.864-1.563 4.002-1.563 6.414 0 2.411.521 4.55 1.563 6.413 1.041 1.864 2.439 3.316 4.193 4.358 1.754 1.041 3.618 1.562 5.591 1.562zm50.07 9.949c-4.166 0-7.921-.96-11.265-2.878-3.343-1.919-5.974-4.55-7.893-7.893-1.864-3.399-2.795-7.208-2.795-11.43 0-4 .931-7.7 2.795-11.1 1.864-3.453 4.44-6.193 7.729-8.221 3.289-2.029 6.962-3.043 11.018-3.043 4.33 0 8.058.932 11.182 2.796 3.124 1.864 5.481 4.413 7.071 7.647 1.645 3.234 2.467 6.824 2.467 10.77 0 1.261-.082 2.467-.247 3.618h-31.491c.548 3.344 1.864 5.893 3.947 7.647 2.137 1.7 4.686 2.55 7.646 2.55 2.467 0 4.577-.522 6.331-1.563a12.06 12.06 0 004.276-4.358l8.716 4.276c-4.276 7.454-10.772 11.182-19.487 11.182zm9.949-27.38c-.11-1.316-.603-2.604-1.48-3.865-.822-1.315-2.001-2.384-3.536-3.206-1.48-.877-3.234-1.316-5.262-1.316-2.576 0-4.796.768-6.66 2.302-1.809 1.48-3.124 3.509-3.947 6.085h20.885zm18.657-15.869h10.113v5.262h.658c1.26-2.028 3.042-3.618 5.344-4.769 2.302-1.206 4.796-1.809 7.482-1.809 5.043 0 8.88 1.535 11.511 4.605 2.631 3.07 3.947 7.263 3.947 12.58V75.37h-10.771V50.621c0-2.686-.685-4.769-2.056-6.248-1.37-1.48-3.288-2.22-5.755-2.22-2.905 0-5.262 1.123-7.071 3.37-1.754 2.248-2.631 5.071-2.631 8.47V75.37h-10.771V33.437zm68.461 43.249c-5.153 0-9.703-1.453-13.649-4.358-3.947-2.905-6.715-7.016-8.305-12.333l10.442-4.111c.823 3.124 2.22 5.618 4.194 7.482 1.973 1.864 4.44 2.795 7.4 2.795 2.466 0 4.577-.603 6.331-1.808 1.754-1.261 2.631-2.988 2.631-5.18 0-2.193-.85-3.974-2.549-5.345-1.644-1.425-4.604-2.933-8.88-4.522l-3.618-1.316c-3.782-1.315-7.016-3.316-9.702-6.002-2.686-2.74-4.029-6.167-4.029-10.278 0-3.07.795-5.865 2.385-8.386 1.589-2.522 3.837-4.495 6.742-5.92 2.905-1.48 6.194-2.22 9.867-2.22 5.317 0 9.51 1.26 12.58 3.782 3.069 2.467 5.18 5.372 6.331 8.715l-9.785 4.112c-.603-1.81-1.672-3.317-3.206-4.523-1.48-1.26-3.399-1.89-5.756-1.89-2.412 0-4.413.575-6.002 1.726-1.535 1.096-2.302 2.549-2.302 4.358 0 1.754.74 3.261 2.22 4.522 1.48 1.206 3.919 2.384 7.317 3.535l3.7 1.234c5.098 1.754 8.99 4.084 11.676 6.989 2.741 2.85 4.111 6.605 4.111 11.264 0 3.837-.987 7.099-2.96 9.785-1.973 2.63-4.522 4.604-7.647 5.92a23.973 23.973 0 01-9.537 1.973zm29.177-60.187h10.771v14.882l-.657 7.318h.657c1.206-1.973 2.96-3.563 5.263-4.769 2.302-1.206 4.796-1.809 7.482-1.809 5.098 0 8.989 1.535 11.675 4.605 2.741 3.015 4.111 7.208 4.111 12.58V75.37h-10.771V50.621c0-2.686-.74-4.769-2.22-6.248-1.425-1.48-3.343-2.22-5.755-2.22-2.851 0-5.208 1.15-7.071 3.453-1.809 2.302-2.714 5.125-2.714 8.469V75.37h-10.771V16.5zm55.546 12.334c-1.918 0-3.562-.686-4.933-2.056-1.37-1.37-2.055-3.015-2.055-4.933 0-1.919.685-3.536 2.055-4.851 1.371-1.37 3.015-2.056 4.933-2.056 1.919 0 3.536.685 4.852 2.056 1.37 1.315 2.055 2.932 2.055 4.85 0 1.92-.685 3.564-2.055 4.934-1.316 1.37-2.933 2.056-4.852 2.056zm-5.426 4.604h10.771V75.37h-10.771V33.437zm21.737 0h10.114v5.098h.657c1.152-1.81 2.823-3.316 5.016-4.522 2.193-1.261 4.714-1.892 7.564-1.892 3.783 0 7.209.96 10.278 2.878 3.125 1.864 5.564 4.495 7.318 7.893 1.754 3.4 2.631 7.236 2.631 11.512 0 4.33-.877 8.194-2.631 11.593-1.754 3.344-4.193 5.975-7.318 7.893-3.069 1.864-6.495 2.796-10.278 2.796-2.85 0-5.399-.603-7.646-1.809-2.193-1.206-3.837-2.713-4.934-4.522h-.657l.657 5.92V93.13h-10.771V33.437zm21.46 33.3c2.028 0 3.92-.52 5.674-1.562 1.754-1.042 3.151-2.494 4.193-4.358 1.041-1.864 1.562-4.002 1.562-6.413 0-2.412-.521-4.55-1.562-6.414-1.042-1.863-2.439-3.289-4.193-4.275a10.923 10.923 0 00-5.674-1.563c-1.973 0-3.837.521-5.591 1.563-1.754.986-3.152 2.412-4.193 4.275-1.042 1.864-1.562 4.002-1.562 6.414 0 2.411.52 4.55 1.562 6.413 1.041 1.864 2.439 3.316 4.193 4.358 1.754 1.041 3.618 1.562 5.591 1.562zm48.425-50.238h12.744l22.118 58.871h-12.251l-4.933-14.06h-22.529l-4.934 14.06h-12.251l22.036-58.87zm14.06 34.616l-5.18-14.8-2.138-7.071h-.658l-2.137 7.07-5.263 14.8h15.376zm28.751-34.616h11.1V75.37h-11.1V16.5zM90.299 24.196A48.388 48.388 0 0156.884 96.03a48.388 48.388 0 01-30.102-4.341l4.01-8.036a39.413 39.413 0 0056.745-30.712 39.403 39.403 0 00-5.016-24.256l7.778-4.49zM6.483 72.587A48.39 48.39 0 0172.567 6.472l-4.487 7.78a39.409 39.409 0 00-53.82 53.844l-7.777 4.49z" fill="#2e2a2a"/><path d="M79.413 17.562a2.645 2.645 0 013.765-2.173l11.617 5.488c1.93.91 2.04 3.614.193 4.68l-12.674 7.318c-1.847 1.067-4.132-.381-3.957-2.508l1.056-12.805zM19.291 80.006a2.645 2.645 0 01-3.765 2.174L3.91 76.692c-1.93-.912-2.04-3.615-.193-4.681l12.674-7.318c1.847-1.066 4.133.382 3.957 2.508l-1.056 12.805z" fill="#2e2a2a"/></svg>
